src/assets/icons/acm-icon.svg

<svg xmlns="http://www.w3.org/2000/svg" xmlns:xlink="http://www.w3.org/1999/xlink" id="Layer_1" x="0" y="0" version="1.1" viewBox="0 0 1275 1275" xml:space="preserve" style="enable-background:new 0 0 1275 1275"><style type="text/css">.st0{fill:#F8F8F8}</style><path d="M548.7,88.8L88.8,548.7c-49,49-49,128.5,0,177.6l459.9,459.9c49,49,128.5,49,177.6,0l459.9-459.9c49-49,49-128.5,0-177.6	L726.3,88.8C677.3,39.8,597.7,39.8,548.7,88.8z"/><path d="M569.2,157.5L157.5,569.2c-37.7,37.7-37.7,98.9,0,136.6l411.7,411.7c37.7,37.7,98.9,37.7,136.6,0l411.7-411.7	c37.7-37.7,37.7-98.9,0-136.6L705.8,157.5C668.1,119.8,606.9,119.8,569.2,157.5z" class="st0"/><path d="M459.3,694.7h-0.9c-3.6,6.4-9.4,11.7-17.4,15.9c-8,4-17.1,6-27.3,6c-5.8,0-11.9-0.8-18.3-2.4c-6.2-1.4-12-3.8-17.4-7.2	c-5.2-3.6-9.6-8.2-13.2-13.8c-3.4-5.8-5.1-12.9-5.1-21.3c0-10.8,3-19.4,9-25.8c6.2-6.4,14.1-11.3,23.7-14.7	c9.6-3.4,20.2-5.6,31.8-6.6c11.8-1.2,23.3-1.8,34.5-1.8v-3.6c0-9-3.3-15.6-9.9-19.8c-6.4-4.4-14.1-6.6-23.1-6.6	c-7.6,0-14.9,1.6-21.9,4.8s-12.8,7.1-17.4,11.7l-18.6-21.9c8.2-7.6,17.6-13.3,28.2-17.1c10.8-3.8,21.7-5.7,32.7-5.7	c12.8,0,23.3,1.8,31.5,5.4c8.4,3.6,15,8.3,19.8,14.1c4.8,5.8,8.1,12.3,9.9,19.5c2,7.2,3,14.4,3,21.6V713h-33.6V694.7z M458.7,647.3	h-8.1c-5.8,0-11.9,0.3-18.3,0.9c-6.4,0.4-12.3,1.5-17.7,3.3c-5.4,1.6-9.9,4-13.5,7.2c-3.6,3-5.4,7.2-5.4,12.6c0,3.4,0.7,6.3,2.1,8.7	c1.6,2.2,3.6,4,6,5.4c2.4,1.4,5.1,2.4,8.1,3c3,0.6,6,0.9,9,0.9c12.4,0,21.8-3.3,28.2-9.9c6.4-6.6,9.6-15.6,9.6-27V647.3z M633.3,608.9c-2.8-4-7-7.3-12.6-9.9c-5.6-2.8-11.3-4.2-17.1-4.2c-6.6,0-12.4,1.4-17.4,4.2c-5,2.6-9.2,6.1-12.6,10.5	c-3.2,4.4-5.6,9.4-7.2,15c-1.6,5.4-2.4,10.9-2.4,16.5s0.8,11.2,2.4,16.8c1.8,5.4,4.4,10.3,7.8,14.7c3.4,4.4,7.6,8,12.6,10.8	c5.2,2.6,11.2,3.9,18,3.9c5.6,0,11.2-1.1,16.8-3.3c5.6-2.2,10.1-5.4,13.5-9.6l22.5,22.8c-6,6.4-13.7,11.4-23.1,15	c-9.2,3.4-19.2,5.1-30,5.1c-10.6,0-20.7-1.7-30.3-5.1c-9.4-3.4-17.7-8.4-24.9-15c-7-6.6-12.6-14.6-16.8-24c-4-9.4-6-20.1-6-32.1	c0-11.6,2-22.1,6-31.5c4.2-9.4,9.8-17.4,16.8-24s15.1-11.7,24.3-15.3c9.4-3.6,19.4-5.4,30-5.4c10.6,0,20.8,2,30.6,6	c10,4,17.9,9.5,23.7,16.5L633.3,608.9z M853.3,564.8c9.4,0,17.4,1.7,24,5.1c6.8,3.2,12.3,7.5,16.5,12.9c4.4,5.4,7.6,11.6,9.6,18.6	s3,14.2,3,21.6v90h-36v-79.8c0-4.2-0.3-8.6-0.9-13.2s-1.9-8.7-3.9-12.3c-2-3.8-4.8-6.9-8.4-9.3c-3.4-2.4-8-3.6-13.8-3.6	c-5.6,0-10.4,1.2-14.4,3.6c-4,2.4-7.3,5.5-9.9,9.3c-2.6,3.8-4.5,8.1-5.7,12.9c-1.2,4.6-1.8,9.2-1.8,13.8V713h-36v-87	c0-9-2.2-16.4-6.6-22.2c-4.2-6-10.9-9-20.1-9c-5.4,0-10.1,1.2-14.1,3.6c-4,2.2-7.3,5.1-9.9,8.7c-2.4,3.6-4.3,7.8-5.7,12.6	c-1.2,4.6-1.8,9.3-1.8,14.1V713h-36V569h34.2v23.1h0.6c1.6-3.6,3.7-7,6.3-10.2c2.8-3.2,6-6.1,9.6-8.7c3.8-2.6,8.1-4.6,12.9-6	c4.8-1.6,10.1-2.4,15.9-2.4c11.2,0,20.5,2.5,27.9,7.5c7.4,5,13.1,11.6,17.1,19.8c4.8-8.8,11.2-15.5,19.2-20.1	C833.1,567.2,842.5,564.8,853.3,564.8z"/></svg>

<svg width="1275" height="1275" viewBox="0 0 1275 1275" fill="currentColor" xmlns="http://www.w3.org/2000/svg">
<path d="M1186.2 548.7L726.3 88.8C677.3 39.8 597.7 39.8 548.7 88.8L88.8 548.7C39.8 597.7 39.8 677.2 88.8 726.3L548.7 1186.2C597.7 1235.2 677.2 1235.2 726.3 1186.2L1186.2 726.3C1235.2 677.3 1235.2 597.8 1186.2 548.7ZM1117.5 705.8L705.8 1117.5C668.1 1155.2 606.9 1155.2 569.2 1117.5L157.5 705.8C119.8 668.1 119.8 606.9 157.5 569.2L569.2 157.5C606.9 119.8 668.1 119.8 705.8 157.5L1117.5 569.2C1155.2 606.9 1155.2 668.1 1117.5 705.8Z"/>
<path d="M459.3 694.7H458.4C454.8 701.1 449 706.4 441 710.6C433 714.6 423.9 716.6 413.7 716.6C407.9 716.6 401.8 715.8 395.4 714.2C389.2 712.8 383.4 710.4 378 707C372.8 703.4 368.4 698.8 364.8 693.2C361.4 687.4 359.7 680.3 359.7 671.9C359.7 661.1 362.7 652.5 368.7 646.1C374.9 639.7 382.8 634.8 392.4 631.4C402 628 412.6 625.8 424.2 624.8C436 623.6 447.5 623 458.7 623V619.4C458.7 610.4 455.4 603.8 448.8 599.6C442.4 595.2 434.7 593 425.7 593C418.1 593 410.8 594.6 403.8 597.8C396.8 601 391 604.9 386.4 609.5L367.8 587.6C376 580 385.4 574.3 396 570.5C406.8 566.7 417.7 564.8 428.7 564.8C441.5 564.8 452 566.6 460.2 570.2C468.6 573.8 475.2 578.5 480 584.3C484.8 590.1 488.1 596.6 489.9 603.8C491.9 611 492.9 618.2 492.9 625.4V713H459.3V694.7ZM458.7 647.3H450.6C444.8 647.3 438.7 647.6 432.3 648.2C425.9 648.6 420 649.7 414.6 651.5C409.2 653.1 404.7 655.5 401.1 658.7C397.5 661.7 395.7 665.9 395.7 671.3C395.7 674.7 396.4 677.6 397.8 680C399.4 682.2 401.4 684 403.8 685.4C406.2 686.8 408.9 687.8 411.9 688.4C414.9 689 417.9 689.3 420.9 689.3C433.3 689.3 442.7 686 449.1 679.4C455.5 672.8 458.7 663.8 458.7 652.4V647.3ZM633.3 608.9C630.5 604.9 626.3 601.6 620.7 599C615.1 596.2 609.4 594.8 603.6 594.8C597 594.8 591.2 596.2 586.2 599C581.2 601.6 577 605.1 573.6 609.5C570.4 613.9 568 618.9 566.4 624.5C564.8 629.9 564 635.4 564 641C564 646.6 564.8 652.2 566.4 657.8C568.2 663.2 570.8 668.1 574.2 672.5C577.6 676.9 581.8 680.5 586.8 683.3C592 685.9 598 687.2 604.8 687.2C610.4 687.2 616 686.1 621.6 683.9C627.2 681.7 631.7 678.5 635.1 674.3L657.6 697.1C651.6 703.5 643.9 708.5 634.5 712.1C625.3 715.5 615.3 717.2 604.5 717.2C593.9 717.2 583.8 715.5 574.2 712.1C564.8 708.7 556.5 703.7 549.3 697.1C542.3 690.5 536.7 682.5 532.5 673.1C528.5 663.7 526.5 653 526.5 641C526.5 629.4 528.5 618.9 532.5 609.5C536.7 600.1 542.3 592.1 549.3 585.5C556.3 578.9 564.4 573.8 573.6 570.2C583 566.6 593 564.8 603.6 564.8C614.2 564.8 624.4 566.8 634.2 570.8C644.2 574.8 652.1 580.3 657.9 587.3L633.3 608.9ZM853.3 564.8C862.7 564.8 870.7 566.5 877.3 569.9C884.1 573.1 889.6 577.4 893.8 582.8C898.2 588.2 901.4 594.4 903.4 601.4C905.4 608.4 906.4 615.6 906.4 623V713H870.4V633.2C870.4 629 870.1 624.6 869.5 620C868.9 615.4 867.6 611.3 865.6 607.7C863.6 603.9 860.8 600.8 857.2 598.4C853.8 596 849.2 594.8 843.4 594.8C837.8 594.8 833 596 829 598.4C825 600.8 821.7 603.9 819.1 607.7C816.5 611.5 814.6 615.8 813.4 620.6C812.2 625.2 811.6 629.8 811.6 634.4V713H775.6V626C775.6 617 773.4 609.6 769 603.8C764.8 597.8 758.1 594.8 748.9 594.8C743.5 594.8 738.8 596 734.8 598.4C730.8 600.6 727.5 603.5 724.9 607.1C722.5 610.7 720.6 614.9 719.2 619.7C718 624.3 717.4 629 717.4 633.8V713H681.4V569H715.6V592.1H716.2C717.8 588.5 719.9 585.1 722.5 581.9C725.3 578.7 728.5 575.8 732.1 573.2C735.9 570.6 740.2 568.6 745 567.2C749.8 565.6 755.1 564.8 760.9 564.8C772.1 564.8 781.4 567.3 788.8 572.3C796.2 577.3 801.9 583.9 805.9 592.1C810.7 583.3 817.1 576.6 825.1 572C833.1 567.2 842.5 564.8 853.3 564.8Z"/>
</svg>
